X:1
T:Title
%%score { 1 | 2 } { 3 | 4 }
L:1/8
Q:1/4=110
M:4/4
K:Ab
V:1 treble nm="Grand Piano, Soprano"
V:2 treble 
V:3 treble nm="Choir Pad, Bass"
V:4 bass 
V:1
 A2 A2 A2 A2 | d2 d2 c4 | E3 F A4 | B4 A4 | A2 A2 A2 A2 | d2 d2 c4 | B3 B c4 | c4 B4 | %8
w: By~Frederic~Field~Bullard,~1903 * * *||||||||
 F2 G2 B2 A2 | G2 F2 E4 | F2 G2 B2 A2 | d2 d2 c4 | B3 A B2 c2 | e2 d2 F4 | E3 F A4 | B4 A4- | %16
w: ||||||||
 A4 z4 |] %17
w: |
V:2
 z2 G2 F2 E2 | F2 E2 E4 | z4 F4 | [EG]4 E4 | z2 G2 F2 E2 | F2 E2 E4 | E3 E E4 | E4 E4 | %8
 E2 E2 E2 E2 | E2 =D2 z4 | E2 E2 E2 E2 | F2 E2 E4 | E3 E E2 E2 | C2 D2 D4 | z4 F4 | [EG]4 E4- | %16
 E4 z4 |] %17
V:3
 C2 E2 D2 C2 | B,2 B,2 A,4 | C3 C D4 | D4 C4 | C2 E2 D2 C2 | B,2 B,2 A,4 | G,3 G, G,4 | A,4 G,4 | %8
 C2 B,2 G,2 A,2 | B,2 G,2 G,4 | C2 B,2 G,2 A,2 | A,2 G,2 A,4 | B,3 C B,2 A,2 | A,2 A,2 A,2 B,2 | %14
 C3 C D4 | D4 C4- | C4 z4 |] %17
V:4
 A,2 A,2 A,2 A,2 | A,2 G,2 z4 | E,3 E, E,4 | E,4 A,,4 | A,2 A,2 A,2 A,2 | A,2 G,2 z4 | E,3 D, C,4 | %7
 A,,4 E,4 | E,2 D,2 C,2 C,2 | B,,2 E,2 E,4 | E,2 D,2 C,2 C,2 | B,,2 E,2 z4 | _G,3 G, G,2 G,2 | %13
 F,2 F,2 B,,4 | E,3 E, E,4 | E,4 A,,4- | A,,4 z4 |] %17

